X: 4001
T: MISS MONTGOMERY
R: Strathspey.
%R: strathspey
B: James Kerr "Merry Melodies" v.3 p.04 #1
Z: 2016 John Chambers <jc:trillian.mit.edu>
M: C
L: 1/8
K: A
uf |\
e<A e>c e<A =g>e | d<=B d>B d<G f>d |\
e<A e>c e<A =g>e | d>B=g>B A<A A :|
|: f |\
e>ac>a e>f=g>e | d>=gB>g d>gf>d |\
e>ac>a e>f=g>e | d>B=g>B A<A A :|

%%sep 1 1 500
%%sep 1 1 500

